src/public/icons/github.svg

<svg viewBox="0 0 30 30" fill="none"
  xmlns="http://www.w3.org/2000/svg">
  <path d="M25.5 15C25.5 16.5176 25.1924 17.9463 24.5771 19.2861C23.9619 20.626 23.1143 21.7881 22.0342 22.7725C20.9541 23.7568 19.7236 24.4951 18.3428 24.9873C18.2744 25.001 18.2129 25.0078 18.1582 25.0078C18.0215 25.0078 17.8984 24.96 17.7891 24.8643C17.6934 24.7686 17.6455 24.625 17.6455 24.4336V21.5625C17.6455 21.0977 17.5771 20.7012 17.4404 20.373C17.3037 20.0449 17.1328 19.7988 16.9277 19.6348C18.3496 19.4707 19.498 19.0195 20.373 18.2812C21.2617 17.543 21.7061 16.2783 21.7061 14.4873C21.7061 13.3799 21.3438 12.4297 20.6191 11.6367C20.7559 11.3223 20.8242 10.9395 20.8242 10.4883C20.8242 9.95508 20.7148 9.41504 20.4961 8.86816C20.4277 8.85449 20.3525 8.84766 20.2705 8.84766C20.0244 8.84766 19.6758 8.92285 19.2246 9.07324C18.7871 9.22363 18.2402 9.51758 17.584 9.95508C16.9551 9.75 16.0801 9.64746 14.959 9.64746C14.125 9.64746 13.2432 9.75 12.3135 9.95508C11.7256 9.53125 11.2129 9.2373 10.7754 9.07324C10.3516 8.90918 10.0098 8.82715 9.75 8.82715C9.62695 8.82715 9.53809 8.84082 9.4834 8.86816C9.26465 9.37402 9.15527 9.88672 9.15527 10.4062C9.15527 10.8984 9.2373 11.3086 9.40137 11.6367C8.67676 12.457 8.31445 13.4072 8.31445 14.4873C8.31445 16.2783 8.74512 17.543 9.60645 18.2812C10.4814 19.0195 11.6367 19.4844 13.0723 19.6758C12.6895 19.9902 12.4775 20.4619 12.4365 21.0908C12.0537 21.2686 11.6572 21.3574 11.2471 21.3574C10.4541 21.3574 9.83887 20.9678 9.40137 20.1885C9.22363 19.9014 8.99805 19.6553 8.72461 19.4502C8.45117 19.2451 8.14355 19.1357 7.80176 19.1221C7.4873 19.1221 7.33008 19.1904 7.33008 19.3271C7.33008 19.4229 7.45996 19.5664 7.71973 19.7578C7.9248 19.8672 8.12988 20.0518 8.33496 20.3115C8.55371 20.5713 8.73828 20.8994 8.88867 21.2959C9.05273 21.7197 9.33984 22.082 9.75 22.3828C10.1738 22.6836 10.7139 22.834 11.3701 22.834C11.6982 22.834 12.0537 22.793 12.4365 22.7109V24.5156C12.4365 24.666 12.3818 24.7891 12.2725 24.8848C12.1631 24.9805 12.0195 25.0283 11.8418 25.0283C11.8008 25.0283 11.7598 25.0283 11.7188 25.0283C10.3242 24.5225 9.08008 23.7773 7.98633 22.793C6.89258 21.7949 6.03809 20.626 5.42285 19.2861C4.80762 17.9463 4.5 16.5176 4.5 15C4.5 13.0859 4.97168 11.3291 5.91504 9.72949C6.8584 8.11621 8.12988 6.84473 9.72949 5.91504C11.3428 4.97168 13.0996 4.5 15 4.5C16.9004 4.5 18.6504 4.97168 20.25 5.91504C21.8633 6.84473 23.1416 8.11621 24.085 9.72949C25.0283 11.3291 25.5 13.0859 25.5 15Z" fill="#706b6d"/>
</svg>

<svg xmlns="http://www.w3.org/2000/svg" fill="none" viewBox="0 0 30 30"><path fill="#706b6d" d="M25.5 15q0 2.277-.923 4.286a10.7 10.7 0 0 1-2.543 3.486 10.8 10.8 0 0 1-3.691 2.215 1 1 0 0 1-.185.02.55.55 0 0 1-.369-.143q-.144-.143-.144-.43v-2.872q0-.696-.205-1.189-.204-.492-.512-.738 2.133-.247 3.445-1.354 1.333-1.107 1.333-3.794 0-1.66-1.087-2.85.205-.472.205-1.149a4.3 4.3 0 0 0-.328-1.62 1 1 0 0 0-.226-.02q-.369 0-1.045.225-.657.226-1.641.882-.944-.308-2.625-.308-1.251 0-2.645.308-.882-.636-1.539-.882-.635-.246-1.025-.246a.6.6 0 0 0-.267.041 3.8 3.8 0 0 0-.328 1.538q0 .739.246 1.23-1.087 1.231-1.087 2.851 0 2.687 1.292 3.794 1.312 1.108 3.466 1.395-.573.471-.635 1.415-.575.267-1.19.266-1.19 0-1.846-1.168a2.7 2.7 0 0 0-.676-.739 1.6 1.6 0 0 0-.923-.328q-.472 0-.472.205 0 .145.39.43.307.165.615.554.328.39.554.985.245.636.861 1.087.636.45 1.62.451.492 0 1.067-.123v1.805q0 .225-.164.369a.63.63 0 0 1-.431.143h-.123a11.3 11.3 0 0 1-3.733-2.235 10.8 10.8 0 0 1-2.563-3.507A10.15 10.15 0 0 1 4.5 15q0-2.87 1.415-5.27a10.4 10.4 0 0 1 3.814-3.815A10.26 10.26 0 0 1 15 4.5q2.85 0 5.25 1.415a10.37 10.37 0 0 1 3.835 3.814Q25.5 12.13 25.5 15"/></svg>
